X:1
T:Gotha
T:Justin Heinrich Knecht, 1796
T:Gotha
T:Public Domain
C:Justin Heinrich Knecht, 1796
Z:Public Domain
%%score ( 1 2 ) ( 3 4 )
L:1/8
M:4/4
K:G
V:1 treble 
V:2 treble 
V:3 bass 
V:4 bass 
V:1
 x8 |: [DG]2 [DG]2 [DB]2 [EG]2 | [DB]2 [GB]2 [Ad]2 [GB]2 | [FA]2 [Ad]2 [GB]2 [DG]2 | %4
 [DF]2 (D^C) [DA]4 :| [FA]2 A2 [GB]2 G2 | [Fc]2 [GB]2 [FA]2 D2 | [FA]2 A2 [GB]2 G2 | %8
 [Ad]2 [GB]2 [GB]2 [FA]2 | [DG]2 D2 [DB]2 [DG]2 | [Gd]2 [Ge]2 [Gd]4 | [DG]2 [D=F]2 [CE]2 [EA]2 | %12
 [DG]2 [DF]2 [DG]4 |] %13
V:2
 x8 |: x8 | x8 | x8 | x2 G2 x4 :| x8 | x8 | x8 | x8 | x8 | x8 | x8 | x8 |] %13
V:3
 x8 |: [G,,B,]2 [G,B,]2 [G,B,]2 [C,C]2 | [G,B,]2 [E,E]2 [F,D]2 [G,D]2 | %3
 [D,D]2 [F,D]2 [G,D]2 [B,,D]2 | [D,A,]2 [E,G,]2 [D,F,]4 :| [D,D]2 [F,D]2 [G,D]2 [B,D]2 | %6
 [A,D]2 [G,D]2 [D,D]2 [D,F,]2 | [D,D]2 [F,D]2 [G,D]2 [B,D]2 | [F,D]2 [G,D]2 [^C,E]2 [D,D]2 | %9
 [G,B,]2 [F,A,]2 G,2 [G,B,]2 | [B,,D]2 [C,C]2 [G,B,]4 | [B,,G,]2 [G,,B,]2 [C,G,]2 [A,,C]2 | %12
 [D,B,]2 (A,C) [G,B,]4 |] %13
V:4
 x8 |: x8 | x8 | x8 | x8 :| x8 | x8 | x8 | x8 | x8 | x8 | x8 | x2 D,2 x4 |] %13

